X:1
T:Carol of the Bells (with lyrics)
T:revision PGF
%%score 1 2 3 4
L:1/8
M:3/4
K:Eb
V:1 treble nm="Soprano" snm="S."
V:2 treble nm="Alto" snm="A."
V:3 treble-8 nm="Tenor" snm="T."
V:4 bass nm="Bass" snm="B."
V:1
 z6 | z6 | z6 | z6 | z6 | z6 | z6 | z6 | z6 | z6 | z6 | z6 | z6 | z6 | z6 | z6 | %16
w: ||||||||||||||||
!<(! (=B,2 C2!<)! D2) |!f! C4 (EF | G6) | E6 | (B2 A2 G2 | F4) (AB | c4) (cd | e2 d2 c2) | %24
w: ||||||||
 (c2 =B2 G2) | C4 (EF | G6) | E6 | (B2 A2 G2 | F4) (AB | c4) (cd | e2 d2 c2) | (c2 =B2 G2) || %33
w: |||||||||
!p!"^A" c6- | (c6 | B6-) | (B6 | =A6-) | A6 | (A6 | (B6) | G6-) | G6- | G6- | (G6 | (B,6) | =A,6) | %47
w: Uh|_|||||||||||||
 C2 E2 A2 | F6 |!f! C6 | E2 F2 G2 | F6 | GF E2 D2 ||"^B" E6 | !breath!G6 | (B6 | G4 FE | D6) | %58
w: From eve- ry-|were.|Oh,|Oh how they|pound,|Te- * lling their|tale|_|Ah|_ _ _||
 (E2 F2 G2 | D6) | (E2 F2 G2 | C6) |!p! (G6 | F6-) |!<(! F6!<)! |!f! c3 c3 | c3 z!p! z2 ||"^C" E6 | %68
w: |||Oh,|Uh|_|Ah|Ah, ah,|ah!|Ding,|
 D6 | C6 | B,6 | A,6 | G,6 | G,6 | G,6 ||!mf!"^D" C4 (EF | G6) | E6 | (B2 A2 G2 | F4) (AB | %80
w: dong,|ding,|dong,|ding,|dong,|ding,|dong.|La la- ra|ra,|La|La- ra- ra-|ra, la- ra-|
 c4) (cd | e2 d2 c2) | (c2 =B2 G2) | C4 (EF | G6) | E6 | (B2 A2 G2 | F4) (AB | c4) (cd | %89
w: ra, La- ra-|ra- ra- ra,|La- ra- ra.|La * *||||||
 e2 d2 c2) | (c2 =B2 G2) ||"^E" C6 | C3 E3 | D6- | D2 E2 D2 | C6- | C2 z4 | (F2 E2 D2 | E2 F4) | %99
w: ||Hark,|how the|bells|_ seem to|say,||Throw cares a-|way _|
 (E6 | G6 | B6 | c6) | z2 C2 D2 | E6 | (A6 | F6) | C6 | E2 F2 G2 | F6 | GF E2 D2 ||"^F" E6 | (G6 | %113
w: Oh|_|||Brin- ging,|cheer,|Ah|_|Oh,|oh, how they|pound,|Te- * lling their|tale.|Ah|
 B6) | (G4 FE | (D6) | G6-) | G6- | G6 | (G6 | =A6 | =B6 | d6 | c6) | (c3 B3 | (=A6 | A6)) | %127
w: _|Ah, _ _|_||||Ah,|_||||Oh, _|_||
 c3 c3 |"^G" c3 z z2 ||"^F" z6 | z6 | z6 | z6 | z6 | z6 | z6 | z6 | (E3 D3 | C4) (DE | D3 F3 | %140
w: Ah, ah,|ah.|||||||||La- ra-|ra, la- ra-|ra- ra-|
 E2 B,2) (EF | GF EF G2) | (A6 | G6 | c2 G2) (GF | E3 D3 | C4) DE | D3 F3 | E2 B,2 EF | GF EF G2 | %150
w: ra- ra, La- ra-|ra- ra- ra- ra- ra,|La-|ra-|ra- ra, La- ra-|ra... *|||||
 A6 | G6 | c2 G2 GF | E3 D3 | C4 DE | D3 F3 | E2 B,2 EF | GF EF G2 | A6 | G6 | c2 G2 GF | E6- | %162
w: ||||||||||||
 E2 z4 ||"^H" z6 | z6 | z6 | z6 | z6 | z6 | z6 | z6 | z6 | z6 | z6 | z6 | z6 | z6 | z6 | z6 | z6 | %180
w: ||||||||||||||||||
 z6 |] %181
w: |
V:2
 z6 | z2 (ED CD | E) z (ED CD | E) z (CD E) z | (B2 AG FG | A) z C z A z | C z A z (BA | %7
w: |la- ra- ra- ra-|ra, la- ra- ra- ra-|ra, da- ra- ra,|da- ra- ra- ra- ra-|ra da da|da da * *|
 G) z G, z (FE | D2 E2 F2 | E) z (ED CD | E) z (ED CD | E) z (CD E) z | (B2 AG FG | A) z C z (AG | %14
w: |||||||
 F) z C z (GA | G4) (FE |!<(! D2 E2!<)! F2) |!f! G,6 | (E2 D3 C | B,6) | (G2 F2 E2 | C4) (FG | %22
w: ||||||||
 A4) (FG | A2 G2 F2) | (E2 D2 =B,2) | G,6 | (E2 D3 C | B,6) | (G2 FG FE | C4) (FG | A4) (FG | %31
w: |||||||||
 A2 G2 F2) | (E2 D2 =B,2) ||!mf! E2 DE C2 | E2 DE C2 | E2 DE C2 | E2 DE C2 | E2 DE C2 | E2 DE C2 | %39
w: ||Hark how the bells,|Sweet sil- ver bells,|All seem to say,|Throw cares a- way.|Christ- mas is here,|Bring- ing good cheer,|
 E2 DE C2 | E2 DE C2 | E2 DE C2 | E2 DE C2 | E2 DE C2 | E2 DE C2 | E2 DE C2 | E2 DE C2 | E2 DE C2 | %48
w: To young and old,|Meek and the bold.|Ding dong ding dong,|That is their song,|With joy- ful ring,|All ca- rol- ing.|One seems to hear|Words of good cheer|From eve- ry- were|
 E2 DE C2 |!f! E2 DE C2 | E2 DE C2 | E2 DE C2 | E2 DE C2 || c2 cc BA | G2 GG FE | F2 FF GF | %56
w: Fill- ing the air.|Oh how they pound,|Rais- ing the sound,|O´er hill and dale,|Te- lling their tale.|Gay- ly they ring _|While peo- ple sing _|Songs of good che- er,|
 E2 CC C2 | G,=A, =B,C DE | FG F2 E2 | G,=A, =B,C DE | FG F2 E2 | E2 DE C2 |!p! E2 DE C2 | %63
w: Christ- mas is here.|Me- rry, Me- rry, Me- rry,|Me- rry Christ- mas,|Me- rry, Me- rry, Me- rry,|Me- rry Christ- mas.|On on they send,|On with- out end,|
 E2 DE C2 | E2 DE C2 |!f! G3 G3 | G3 z!p! z2 || (G3 E3 | F3 B,3 | B,3 F3 | G3 E3) | (B3 A3 | %72
w: Their joy- ful tone,|To eve- ry home.-|Ah, ah,|ah!|Uh _|_ _|||Uh _|
 G3 E3 | D3 =B,3 | C6) ||!mf! G,6 | (E2 D3 C | B,6) | (G2 F2 E2 | C4) (FG | A4) (FG | A2 G2 F2) | %82
w: _ _|||La|la- ra ra|ra,|La- ra- ra-|ra, la- ra-|ra, La- ra-|ra- ra- ra,|
 (E2 D2 =B,2) | G,6 | (E2 D3 C | B,6) | (G2 FG FE | C4) (FG | A4) (FG | A2 G2 F2) | (E2 D2 =B,2) || %91
w: La- ra- ra.|La||||||||
 E2 DE C2 | E2 DE C2 | E2 DE C2 | E2 DE C2 | z6 | z6 | z6 | z6 | E2 DE C2 | E2 DE C2 | E2 DE C2 | %102
w: Hark how the bells,|Sweet sil- ver bells,|All seem to say,|Throw cares a- way.|||||Christ- mas is here,|Brin- ging good cheer,|To young and old,|
 E2 DE C2 | z6 | z6 | z6 | z6 | E2 DE C2 | E2 DE C2 | E2 DE C2 | E2 DE C2 || c2 cc BA | G2 GG FE | %113
w: Meek and the bold.|||||Oh, how they pound,|Rai- sing the sound,|O'er hill and dale,|Te- lling their tale.|Gay- ly they ring _|While peo- ple sing _|
 F2 FF GF | E2 CC C2 | G,=A, =B,C DE | FG F2 E2 | F3 G3 | F3 E3 | G,=A, =B,C DE | FG F2 E2 | %121
w: Songs of good che- er,|Christ- mas is here.|Me- rry, me- rry, me- rry,|me- rry Christ- mas,|Me- rry|Christ- mas,|Me- rry, me- rry, me- rry,|me- rry Christ- mas.|
 D3 E3 | F3 D3 | E2 DE C2 | E2 DE C2 | E2 DE C2 | E2 DE C2 | G3 G3 | G3 z z2 || %129
w: Me- rry|Christ- mas|On, on they send,|On with- out end,|Their joy- ful tone,|To eve- ry home.|Ah, ah,|ah.|
"^Fugato" (GF ED C2) | (AG FE F2) | (DB, BA GF | GB, GA G2) | (ED CD E2) | (FG FE F2) | %135
w: La- ra- ra- ra- ra,|La- ra- ra- ra- ra,|||||
 (DC =B,C DF | =EF ED E2) | GF ED C2 | AG FE F2 | DB, BA GF | GB, GA G2 | ED CD E2 | FG FE F2 | %143
w: ||||||||
 DC =B,C DF | =EF ED E2 | GF ED C2 | AG FE F2 | DB, BA GF | GB, GA G2 | ED CD E2 | FG FE F2 | %151
w: ||||||||
 DC =B,C DF | =EF ED E2 | GF ED C2 | AG FE F2 | DB, BA GF | GB, GA G2 | ED CD E2 | FG FE F2 | %159
w: ||||||||
 DC =B,C DF | =EF ED E2 | z6 | z6 || z2 ED CD | E z ED CD | E z CD E z | B2 AG FG | A z C z A z | %168
w: ||||La- ra- ra- ra-|ra... * * * *||||
 C z A z BA | G z G, z FE | D2 E2 F2 | E z ED CD | E z ED CD | E z CD E z | c3 D EF | G3 F E2 | %176
w: |||||||La- ra- ra,|
 D2 C2 D2 | =E6- | E6- | E6- | E6 |] %181
w: La- ra- ra-|ra|_|||
V:3
 z6 | z6 | z6 | z6 | z6 | z6 | z6 | d4 (dc | =B2 c2 d2) | (c3 G3 | c3 e3 | g3 e3) | (f2 e2) (de | %13
w: |||||||Da da- ra-|ra- ra- ra|da- ra-|ra- ra-|ra- ra|da- ra Da- ra-|
 c2 A2) (AG | F4) (=Bc | d6) |!<(! G6!<)! |!f! E z2 E z2 | E z2 (D EF | G) z2 G z2 | G z2 z (GB | %21
w: ra- ra Da- ra-|ra, da- ra-|ra||Bam bam|bam, ba- ra- ra-|bam bam|bam, ba- ra-|
 A) z2 A z2 | A z2 (E FG | c2 c2 c2) | (A2 G2 D2) | E z2 E z2 | E z2 (D EF | G) z2 G z2 | %28
w: bam bam|bam, ba- ra- ra-|ra- ra- ra,|ba- ra- ra,|Bam... *|||
 G z2 z (GB | A) z2 A z2 | A z2 (E FG | c2 c2 c2) | (A2 G2 D2) ||!p! g6- | g6- | g6- | (g6 | f6) | %38
w: |||||Uh|_||||
 (f6 | (c6) | (d6) | c6-) | (c6 | B6-) | (B6 | F6-) | F6 | A2 B2 c2 | B6 |!f! E6 | G2 =A2 B2 | %51
w: |||||||||From eve- ry-|were.|Oh,|Oh how they|
 =A6 | cB G2 F2 || G6 | !breath!B6 | e2 d3 c- | c3 B G2 | G3 =B3 | c3 F3 | D3 G3 | A3 F3 | C6 | %62
w: pound,|Te- * lling their|tale|_|Ah, _ _|_ _ _|Me- rry,|Me- rry,|Me- rry,|Christ- mas,|Oh,|
!p! G6 | =A6 |!<(! A6!<)! |!f! e3 e3 | e3 z!p! z2 || c6 | B6 | A6 | G6 | F6 | E6 | D6 | E6 || %75
w: Uh|_|Ah|Ah, ah,|ah!|Ding,|dong,|ding,|dong,|ding,|dong,|ding,|dong.|
!mf! E z2 E z2 | E z2 D EF | G z2 G z2 | G z2 z (GB | A) z2 A z2 | A z2 (E FG | c2 c2 c2) | %82
w: Bam bam|bam ba- ra- ra|bam bam|bam ba- ra|bam bam|bam, ba- ra- ra-|ra- ra- ra,|
 (A2 G2 D2) | E z2 E z2 | E z2 (D EF | G) z2 G z2 | G z2 z (GB | A) z2 A z2 | A z2 (E FG | %89
w: La- ra- ra.|||||||
 c2 c2 c2) | (A2 G2 D2) || G6 | G3 c3 | B6- | B2 c2 B2 | A6- | A2 z4 | (f2 e2 d2 | c2 B4) | (G6 | %100
w: ||Hark,|how the|bells|_ seem to|say,||Throw cares a-|way _|Oh|
 c6 | d6 | e6) | z2 A2 B2 | c6 | (c6 | B6) | E6 | G2 =A2 B2 | =A6 | cB G2 F2 || G6 | (B6 | %113
w: _|||Bring- ing,|cheer,|Ah|_|Oh,|oh, how they|pound,|Te- * lling their|tale.|Ah|
 e2 d3 c- | c3 B G2) | G3 =A3 | =B3 c3 | d3 e3 | d3 c3 | G3 =A3 | =B3 c3 | =B3 c3 | d3 =B3 | c6 | %124
w: _ _ _||Me- rry,|me- rry,|Me- rry|Christ- mas,|Me- rry,|me- rry,|Me- rry|Christ- mas|_|
 (e3 d3 | c6- | c6) | e3 e3 | e3 z z2 || z6 | z6 | z6 | z6 | z6 | z6 | z6 | z6 | z6 | z6 | z6 | %140
w: Oh _|_||Ah, ah,|ah.||||||||||||
 z6 | z6 | z6 | z6 | z6 | c3 B3 | A3 G3 | F4 BA | G2 A2 B2 | c6 | de dc dc | =B6 | G6 | c3 B3 | %154
w: ||||||||||||||
 A3 G3 | F4 BA | G2 A2 B2 | c6 | de dc dc | =B6 | G6- | G6 | z6 || z6 | z6 | z6 | z6 | z6 | z6 | %169
w: |||||||||||||||
 d4 dc | =B2 c2 d2 | c3 G3 | c3 e3 | g3 f3 | ed cB cd | c3 c c2 | G2 G2 G2 | G6- | G6- | G6- | %180
w: La, la- ra-|ra- ra- ra...||||||||||
 G6 |] %181
w: |
V:4
 z2 (C,D, E,F, | G,) z G, z G, z | G, z G, z G, z | G, z G, z G, z | G, z (F,E, D,E, | %5
w: la- ra- ra- ra-|ra bam bam|bam * *|||
 F,) z F, z (F,2 | E,) z E, z (D,C, | =B,,) z B,, z B,, z | G,, z G,, z G,, z | G, z G, z G, z | %10
w: |||||
 G, z G, z G, z | G, z G, z G, z | G, z (F,E, D,E, | F,) z F, z (F,E, | D,) z D, z (D,C, | %15
w: |||||
 =B,,) z B,, z B,, z |!<(! (G,,2 =A,,2!<)! =B,,2) |!f! C, z2 C, z2 | C, z2 (B,, C,D, | %19
w: ||||
 E,) z2 E, z2 | E, z2 z (E,G, | F,) z2 F, z2 | F, z2 (B,, D,E, | F,2 E,2 D,2) | (C,2 =B,,2 G,,2) | %25
w: ||||||
 C, z2 C, z2 | C, z2 (B,, C,D, | E,) z2 E, z2 | E, z2 z (E,G, | F,) z2 F, z2 | F, z2 (B,, D,E, | %31
w: ||||||
 F,2 E,2 D,2) | (C,2 =B,,2 G,,2) || z6 | z6 | z6 | z6 | z6 | z6 | z6 | z6 | z6 | z6 | z6 | %44
w: |||||||||||||
 G,2 E,2 G,,2 | F,,6- | F,,2 F,,2 G,,2 | A,,2 E,2 A,2 | F,6 |!f! C,3 C,2 C, | C,4 z2 | C,3 C,2 C, | %52
w: Uh _ _|Ah|_ _ _|From eve- ry-|were.||||
 C,4 z2 || C,6 | E,2 F,2 G,2 | B,6 | G,6 | G,,6 | A,,6 | G,,6 | F,,6 | C,6- |!p! C,2 E,F, (G,2 | %63
w: |||||||||Oh,|* Uh _ _|
 C6-) |!<(! C6!<)! |!f! C3 C3 | C3 z!p! z2 || [CCC]6 | G,6 | A,6 | E,6 | F,6 | C,6 | G,6 | C,6 || %75
w: _|Ah|Ah, ah,|ah!|Uh|_|||||||
!mf! C, z2 C, z2 | C, z2 B,, C,D, | E, z2 E, z2 | E, z2 z (E,G, | F,) z2 F, z2 | F, z2 (B,, D,E, | %81
w: Bam bam|bam ba- ra- ra|bam bam|bam ba- ra|bam bam|bam, ba- ra- ra-|
 F,2 E,2 D,2) | (C,2 =B,,2 G,,2) | C, z2 C, z2 | C, z2 (B,, C,D, | E,) z2 E, z2 | E, z2 z (E,G, | %87
w: ra- ra- ra,|La- ra- ra.|||||
 F,) z2 F, z2 | F, z2 (B,, D,E, | F,2 E,2 D,2) | (C,2 =B,,2 G,,2) || C,6 | E,3 G,3 | F,6- | %94
w: ||||Hark,|how the|bells|
 F,2 G,2 F,2 | E,3 F,3- | F,2 (F,2 G,2 | A,2 G,2 F,2 | E,2 D,4) | C,6 | C,2 E,2 G,2 | F,6- | %102
w: _ seem to|say _|, we will|throw cares a-|way _|Bam,|bam bam bam|bam,|
 F,2 F,2 G,2 | A,6- | A,2 (F,2 G,2 | A,2 G,2 F,2 | E,2 D,2 B,,2) | C,3 C,2 C, | C,4 C,C, | %109
w: * bam bam|bam,|* To the|old _ and|young _ _|Tom, tom to|tom, to to|
 C,3 C,2 C, | C,6 || C,6 | E,2 F,2 G,2 | B,6 | G,6 | z6 | z6 | z6 | z6 | G,,6- | G,,6- | G,,6- | %122
w: tom, tom to|tom,|||||||||Oh,|_||
 (G,,6 | C,6-) | C,6 | C6- | C6 | C3 C3 | C3 z z2 || C,4 CB, | A,4 F,2 | B,6 | E,2 F,2 G,2 | %133
w: |||||Ah, ah,|ah.|Dam da- ra-|ram, dam|dam,|da- ra- ra|
 A,3 G, F,E, | D,2 E,2 A,2 | G,3 D,3 | C,G, =E,2 D,2 | C,4 CB, | A,4 F,2 | B,6 | E,2 F,2 G,2 | %141
w: dam da- ra- ra|Da- ra- ra|dam dam|da- ra- ram dam|||||
 A,3 G, F,E, | D,2 E,2 A,2 | G,3 D,3 | C,G, =E,2 D,2 | C,4 CB, | A,4 F,2 | B,6 | E,2 F,2 G,2 | %149
w: ||||||||
 A,3 G, F,E, | D,2 E,2 A,2 | G,3 D,3 | C,G, =E,2 D,2 | C,4 CB, | A,4 F,2 | B,6 | E,2 F,2 G,2 | %157
w: ||||||||
 A,3 G, F,E, | D,2 E,2 A,2 | G,3 D,3 | C,G, =E,2 D,2 | C,6- | C,2 C,D, E,F, || G, z G, z G, z | %164
w: |||||* Ba- ra- ra- ra-|ram bam bam...|
 G, z G, z G, z | G, z G, z G, z | G, z F,E, D,E, | F, z F, z F, z | E, z E, z D,C, | %169
w: |||||
 =B,, z B,, z B,, z | G,, z G,, z G,, z | G, z G, z G, z | G, z G, z G, z | G, z G, z G, z | %174
w: |||||
 G,F, E,D, C,D, | E,3 D, C,2 | =B,,2 =A,,2 B,,2 | C,6- | C,6 | C,6- | C,6 |] %181
w: |||||||

